src/icons/icons_set_01/001-facebook-messenger.svg

<?xml version="1.0" encoding="UTF-8"?>
<svg width="50px" height="50px" viewBox="0 0 50 50" version="1.1" xmlns="http://www.w3.org/2000/svg" xmlns:xlink="http://www.w3.org/1999/xlink">
    <!-- Generator: Sketch 52.2 (67145) - http://www.bohemiancoding.com/sketch -->
    <title>001-facebook-messenger</title>
    <desc>Created with Sketch.</desc>
    <g id="001-facebook-messenger" stroke="none" stroke-width="1" fill="none" fill-rule="evenodd">
        <g id="Group" transform="translate(3.995000, 3.995000)" fill="#000000" fill-rule="nonzero">
            <g id="138-facebook-messenger">
                <g id="ICONSET-01">
                    <g id="138-facebook-messenger">
                        <path d="M20.9937221,0.157889933 C9.45838112,0.157889933 0.107139597,9.50913146 0.107139597,21.0444725 C0.107139597,32.5798134 9.45838112,41.931055 20.9937221,41.931055 C32.5290631,41.931055 41.8803047,32.5798134 41.8803047,21.0444725 C41.877192,9.51042102 32.5277735,0.161002617 20.9937221,0.157889933 Z M23.1929034,27.0217342 L17.7879926,21.4110027 L7.38699329,27.1655268 L18.7945409,15.0643913 L24.1938128,20.6779423 L34.5976315,14.9205987 L23.1929034,27.0217342 Z" id="Shape"></path>
                    </g>
                </g>
            </g>
        </g>
    </g>
</svg>

<svg height="50" viewBox="0 0 50 50" width="50" xmlns="http://www.w3.org/2000/svg"><path d="m20.9937221.15788993c-11.53534098 0-20.8865825 9.35124153-20.8865825 20.88658257 0 11.5353409 9.35124152 20.8865825 20.8865825 20.8865825 11.535341 0 20.8865826-9.3512416 20.8865826-20.8865825-.0031127-11.53405148-9.3525312-20.88346988-20.8865826-20.88658257zm2.1991813 26.86384427-5.4049108-5.6107315-10.40099931 5.7545241 11.40754761-12.1011355 5.3992719 5.613551 10.4038187-5.7573436z" transform="translate(3.995 3.995)"/></svg>
